X:1
T:12 New Songs by some of the best and best-known British composers
T:For Ever Mine
T:12 New Songs
T:Charles Villiers Stanford
T:10. For Ever Mine
T:Harold Boulton 
T:Creative Commons copyright waiver (CC0 1.0 Universal)
T:Creative Commons copyright waiver (CC0 1.0 Universal)
T:Creative Commons copyright waiver (CC0 1.0 Universal)
T:Creative Commons copyright waiver (CC0 1.0 Universal)
T:Creative Commons copyright waiver (CC0 1.0 Universal)
T:Creative Commons copyright waiver (CC0 1.0 Universal)
T:Creative Commons copyright waiver (CC0 1.0 Universal)
T:Creative Commons copyright waiver (CC0 1.0 Universal)
C:Charles Villiers Stanford
Z:Harold Boulton (also series editor)
Z:Creative Commons copyright waiver (CC0 1.0 Universal)
%%score 1 { ( 2 4 ) | ( 3 5 ) }
L:1/8
Q:1/4=116
M:4/4
K:Ab
V:1 treble nm="Voice"
V:2 treble nm="Piano"
V:4 treble 
V:3 bass 
V:5 bass 
V:1
"^Allegretto con moto" z2 | z8 | z8 | z8 | z8 | z8 | z8 | z8 | %8
w: ||||||||
 (3z z!mf! c (3c A c!<(! (6:4:2e4- e2-!<)! |!>(! (6:4:2e4- e2!>)! (6:4:5z2 z z e c | %10
w: I lik- en my love _|_ _ to a|
 (12:8:11f2- f/ d/ A z z z2 z z z B | (cd) e A{Ac} B7/2 A/ | A4 z4 | z8 | %14
w: gos- * sam- er A-|float _ in the sum- mer|air,||
 z c d e (fe)"^cresc." d c | e2 d4 d2 | _g2 f e (edc3/2) B/ | (A2 f2) z4 | z8 | %19
w: And wish that I _ were the|west wind, Her|form on my wings _ _ to|bear; _||
 z B c d (3:2:1d3- (3d c B | (3e2- e/ c/ (3A z z z2 f2 | A6 !>!B2 | E8 | z8 | z8 | %25
w: She is so dain- * ti- ly|de- li- * cate, So|pure, so|rare.|||
 (3z z!mf! c (3c A c (3:2:1e6- | (3:2:1e6 (3:2:2z2 z (3z e c | (3:2:2f2 d (3:2:1A3 (3:2:2z2 z A B | %28
w: I lik- en my love|_ to a|but- ter- fly By a|
 (cd) e A{Bc} B7/2 A/ | A4 z4 | z4 z2 z c | e2 c B (A_G) A B | B2 A4 A2 | _g2 f3/2 e/ (edc3/2) B/ | %34
w: bow- * er of ro- ses|flown,|The|flow- ers my fel- * lows are|sleep- ing, And|I am a- wake _ _ a-|
 (A2 f2) z4 | z4 z2 z =A | (3:2:1B3- (3B c d (3:2:1d3- (3d c B | (e2 =e2 f4-) | f3 A A2 z2 | z8 | %40
w: lone; _|I|i- * pen my pe- * tals to|wel- * *|* come her||
 z8 | c6 z2 | z8 | (3z z!mf! G (3B G B"^cresc." (3:2:1d3- (3d c d | f3 d d4- | d2 d3/2 d/ (_g4- | %46
w: |throne.||I li- ken my love _ to a|hun- dred things|_ In the realm|
 g4 f2) e2 | (d2 f2 c7/2) B/ | B4 z4 | z G A B (cB) A G |"^cresc." B2 A4 A3/2 A/ | %51
w: _ _ of|fan- * * cy|fine,|Where- in I fol- * low and|woo her In the|
 d2 c B!f!"^rall." !>!g!>!f!>!e3/2 d/ |!>(! (c4!>)!!p! a4-) | a8 | %54
w: core of my heart _ _ to|twine; _|_|
[Q:1/4=120]"^Tempo I tranquillo" z2 f2 e2 A2 | c6 B A | c6 A2 | F6 !fermata!z2 |"^." z8 | z8 | z8 | %61
w: Oh may she|peace- ful- ly|nes- tle|there,||||
 z2 B2 e4- |!<(! e6 c2!<)! | (!>!B2 A2) z4 | z8 | z8 | z8 | z8 | z8 | z8 | z8 |] %71
w: For ev-|* er|mine! _||||||||
V:2
!p! f2 | A6 (_f2 | A6) (e2 | A2) (=d2 A2) ([A-_d]2 | [Ac]2 [FAB]2) z4 | %5
!<(! (3EAB!<)!!>(! [Gd]4 [EGc]2!>)! |!pp! x8 | %7
[I:staff +1] (3(A,,E,A,[I:staff -1] (3CEc)[I:staff +1] (3(E,G,C[I:staff -1] (3:2:1[EGe]3) | %8
[I:staff +1] (3(A,,E,A,[I:staff -1] (3CEc)[I:staff +1] (3(E,G,C[I:staff -1] (3EGe) | %9
 (3(CEA (3cea)[I:staff +1] (3(B,C[I:staff -1]_G (3Bc_g) | (3:2:2z2 z (3Adf (3edc (3FAB | %11
 [A-c][AB] [Ae]A [GB]4 | x8 | %13
[I:staff +1] (3(A,,F,A,[I:staff -1] (3CFe)[I:staff +1] (3(E,G,C[I:staff -1] (3:2:1[EGe]3) | %14
[I:staff +1] (3(A,,_G,A,[I:staff -1] (3CEc)[I:staff +1] (3(F,CE[I:staff -1] (3:2:1[=Af]3) | %15
[I:staff +1] (3(B,,F,B,[I:staff -1] (3DFd)[I:staff +1] (3(A,B,D[I:staff -1] (3:2:1[FBd]3) | %16
"_poco    cresc."[I:staff +1] (3(_G,B,D[I:staff -1] (3_GB_g)[I:staff +1] (3(G,A,C[I:staff -1] (3EAe) | %17
[I:staff +1] (3(F,A,D[I:staff -1] (3Ada) (3:2:2z2 z (3:2:1([Bb]3 | %18
 (3:2:1[Aa]3) (3:2:1x3 (3:2:2z2 z (3:2:1x3 | (3:2:1[Ff]3 (3z z B (3:2:1[_F_f]3 (3z z B | %20
 (3:2:1[Ee]3 (3z z A [FAc]4 | z4 (C2 [EG]2) | z2 ([EA]2 [DF]2 [DE]2) | %23
[I:staff +1] (3(A,,E,A,[I:staff -1] (3CEc)[I:staff +1] (3(E,G,C[I:staff -1] (3:2:1[EGe]3) | %24
[I:staff +1] (3(A,,E,A,[I:staff -1] (3CEc)[I:staff +1] (3(E,G,C[I:staff -1] (3:2:1[EGe]3) | %25
[I:staff +1] (3(A,,E,A,[I:staff -1] (3CEc)[I:staff +1] (3(E,G,C[I:staff -1] (3EGe) | %26
 (3(CEA (3cea) (3(B,C_G (3Bc_g) | (3:2:2z2 z (3Adf (3edA (3FAB | ([Ac][AB] [Ae]A [GB]4) | %29
[I:staff +1] (3(A,,F,A,[I:staff -1] (3CFc)[I:staff +1] (3(E,G,C[I:staff -1] (3:2:1[EGe]3) | %30
[I:staff +1] (3(A,,F,A,[I:staff -1] (3CFc)[I:staff +1] (3(E,G,C[I:staff -1] (3:2:1[EGe]3) | %31
[I:staff +1] (3(A,,_G,A,[I:staff -1] (3CAc)[I:staff +1] (3(B,,G,A,[I:staff -1] (3:2:1[DAd]3) | %32
[I:staff +1] (3(C,_G,A,[I:staff -1] (3EAe)[I:staff +1] (3(D,G,A,[I:staff -1] (3:2:1[FAf]3) | %33
[I:staff +1] (3(E,A,C[I:staff -1] (3_GA_g)[I:staff +1] (3(_G,A,C[I:staff -1] (3EAe) | %34
[I:staff +1] (6:4:6(F,A,D[I:staff -1] Ada) (6:4:3z2 z [Bb]3 | (6:4:4[Aa]3 dFA (6:4:3z2 z [_G_g]3 | %36
 (3:2:1[Ff]3 (3z z B (3:2:1[_F_f]3 (3z z B | (3(eEA (3cC_G (3AA,F (3E[I:staff +1]F,A, | %38
[I:staff -1] (3E[I:staff +1]F,A,[I:staff -1] (3=D[I:staff +1]F,A,)[I:staff -1] z2!pp! (f2 | %39
 A2 [Gc]2 F2 [EA]2 | _D2 [CF]2 [A,D]2 [G,B,]2) | %41
[I:staff +1] (3(=E,,C,=E,[I:staff -1] (3G,CG)[I:staff +1] (3(F,,C,F,[I:staff -1] (3:2:1[A,=B,A]3) | %42
[I:staff +1] (3(=E,,C,=E,[I:staff -1] (3G,CG)[I:staff +1] (3(F,,C,F,[I:staff -1] (3A,=B,A) | %43
[I:staff +1] (3(=E,,C,=E,"_cresc."[I:staff -1] (3G,CG)[I:staff +1] (3(G,,E,G,[I:staff -1] (3B,DB) | %44
[I:staff +1] (3(F,,D,F,[I:staff -1] (3A,DA)[I:staff +1] (3(_G,,D,_G,[I:staff -1] (3B,DB) | %45
[I:staff +1] (3(F,,D,F,[I:staff -1] (3A,DA)[I:staff +1] (3(B,,_G,B,[I:staff -1] (3D_Gd) | %46
[I:staff +1] (3(C,=A,C[I:staff -1] (3E_Ge) [Fd]2 [Gc]2 | B4 =A4 | %48
[I:staff +1] (3(B,,F,B,[I:staff -1] (3D"_accel."Fd)[I:staff +1] (3A,B,D[I:staff -1] (3:2:1[FBd]3 | %49
[I:staff +1] (3(G,B,D[I:staff -1] (3FBd)[I:staff +1] (3(=E,B,C[I:staff -1] (3GBg) | %50
"_cresc."[I:staff +1] (3(F,A,C[I:staff -1] (3FAc)[I:staff +1] (3(_E,A,C[I:staff -1] (3FAf) | %51
[I:staff +1] (3(D,A,B,[I:staff -1] (3FAB)"_rall." BA G2 | %52
[I:staff +1] (3(=E,B,C[I:staff -1] (3GBc)[I:staff +1] (3(F,A,C[I:staff -1] (3FAc) | g4 f4 | %54
 z4 [EA-]4 | [FA]4 D4 | C8 | (C4 B,) !fermata!z (f2 | A6) (_f2 | A6) (e2 | A2) (=d2 A2) [A-_d]2 | %61
 [Ac]2 [=FB]2 E2 [DF]2 | A4 G4 | (6:4:3z2 z (A3 (6:4:1f6) | (3:2:2z2 z (3:2:1(e3 (6:4:1a6) | %65
 (3:2:2z2 z (3:2:1(a3 (6:4:1a'6-) | a'(f'e'd'!>(! bafd | BAFD!>)! CB,) (F>G | F2 E4) (D>E | D8 | %70
 !fermata!C8) |] %71
V:3
 z2 | z2 (F2 [D,A,]4) | z2 (_F2 [=D,A,]4) | .[E,A,]2 z2 .[F,A,]2 ([_F,B,]2 | %4
 [E,C]2 =D,2) z2 (3E,A,_D | z2 (.B,2 .E,2 .E,,2) | %6
 (3(A,,E,A,[I:staff -1] (3CEc)[I:staff +1] (3(E,G,C[I:staff -1] (3:2:1[EGe]3) |[I:staff +1] x8 | %8
 x8 | x8 | (3A,DF (3:2:2z2 z (3:2:2z2 z (3z[I:staff -1] DF | ED CF[I:staff +1] [E,D]4 | %12
 (3(A,,F,A,[I:staff -1] (3CFc)[I:staff +1] (3(E,G,C[I:staff -1] (3:2:1[EGe]3) |[I:staff +1] x8 | %14
 x8 | x8 | x8 | x4 (3F,A,D- (3:2:1[=E,D]3 | %18
 (3(F,A,D[I:staff -1] (3dFA)[I:staff +1] (3(C,E,=A,[I:staff -1] (3:2:1[_G_g]3) | %19
[I:staff +1] (3(D,F,B, (3D) z z (3(B,,_F,G, (3D) z z | (3C,E,A, (3C z z =D,,4 | %21
 z2 (F2 [=D,A,]2 [_D,B,]2) | z2 ([C,A,]2- [C,A,]2 [E,G,]2) | x8 | x8 | x8 | x8 | %27
 (3F,DF (3:2:2z2 z (3:2:2z2 z (3z[I:staff -1] (DF | ED CF[I:staff +1] [E,D]4) | x8 | x8 | x8 | x8 | %33
 x8 | x4 (6:4:4F,A,D- [=E,D]3 | (6:4:5F,A,D z2 z (6:4:5C,E,=A, z2 z | %36
 (3(D,F,B, (3D) z z (3(B,,_F,G, (3D) z z | (C,2 A,,2 D,2 C,2 | _C,2 B,,2) z4 | (F2 E2 =D2 C2 | %40
 B,2 A,2 F,2 E,2) | x8 | x8 | x8 | x8 | x8 | x4 [D,B,]2 E,2 | F,8 | x8 | x8 | x8 | x4 D3 B, | x8 | %53
 (3_E,A,C (3:2:2z2 z (3D,A,D (3:2:2z2 z | z4 C,4 | D,4 [F,A,]4 | A,8 | %57
 [D,A,]4- [D,A,] !fermata!z z2 | z2 (F2 [D,A,]4) | z2 (_F2 [=D,A,]4) | %60
 [E,A,]2 z2 [F,A,]2 [_F,B,]2 | [E,C]2 [D,G,]2 [C,A,]2 [B,,A,]2 | E,8 | %63
 (3A,,E,A, (3:2:2z2 z (3D,A,D (3:2:2z2 z | (3C,A,C (3:2:2z2 z (3F,DF (3z z z | %65
 (6:4:6(E,CE[I:staff -1]xAe)[I:staff +1] (3(A,[I:staff -1]DF (3Adf |!f! a)[I:staff +1] z z2 z4 | %67
 z4 z2 D,,2 | z2 [E,A,]2 z2 [E,G,]2 | z4 [E,-G,]4 | [E,A,]8 |] %71
V:4
 x2 | x8 | x8 | x8 | x8 | x8 | x8 | x8 | x8 | x8 | x8 | x8 | x8 | x8 | x8 | x8 | x8 | x8 | x8 | %19
 x8 | x8 | x8 | x8 | x8 | x8 | x8 | x8 | x8 | x8 | x8 | x8 | x8 | x8 | x8 | x8 | x8 | x8 | x8 | %38
 x8 | x8 | x8 | x8 | x8 | x8 | x8 | x8 | x8 | F2 D2 E4 | x8 | x8 | x8 | x8 | x8 | %53
 (3:2:2z2 z (3GAc (3:2:2z2 z (3FAd | x8 | x8 | x8 | x8 | x8 | x8 | x8 | x8 | [B,D]8 | %63
(6:4:5x2xxC_G (6:4:3z2 z [FA]3 |(6:4:5x2xx_GA (6:4:3z2 z [Ad]3 | x8 | x8 | x6 [G,B,]2 | x8 | x8 | %70
 x8 |] %71
V:5
 x2 | x8 | x8 | x8 | x8 | x8 | x8 | x8 | x8 | x8 | x8 | x8 | x8 | x8 | x8 | x8 | x8 | x8 | x8 | %19
 x8 | x8 | x8 | x8 | x8 | x8 | x8 | x8 | x8 | x8 | x8 | x8 | x8 | x8 | x8 | x8 | x8 | x8 | x8 | %38
 x8 | x8 | x8 | x8 | x8 | x8 | x8 | x8 | x8 | x8 | x8 | x8 | x8 | x4 E,4 | x8 | x8 | x8 | x8 | %56
 _F,4 E,4 | x8 | x8 | x8 | x8 | x8 | x8 | x8 | x8 | x8 | x8 | x8 | x2 C,,2 x2 B,,,2 | %69
 x4 [A,,,E,,]4- | !fermata![A,,,E,,]8 |] %71

